!!!OTL: Carraig aonair, S. 83
!!!id: I0544
**kern
*clefG2
*k[f#]
*e:
{8.e
16f#
=1
4g
4a
8e
8f#
=2
2g
8e
8e
=3
4g
8a
8b
4dd
=4
2ee}
=5
{4ee
=6
4dd
4b
8.b
16a
=7
16b
8.dd
4b
8.a
16g
=8
4f#
4e
4e
=9
2e}
=10
{8.e
16f#
=11
4g
4a
8e
8f#
=12
2g
4e
=13
4g
8a
8b
4dd
=14
2ee}
=15
{4ee
=16
4dd
4b
8.b
16a
=17
16b
8.dd
4b
8.a
16g
=18
4f#
4e
4e
=19
2e}
==
*-
!!!minrhy: 16
!!!meters: 3/4 ]  ZZ[4
!!!cut: Carraig aonair, S. 83
!!!reg: Irland
!!!trd: O'SULLIVAN, Donal: Song of the Irish
!!!rhy1: X_.X  X__X__X_X_  X___X_X_  X__X_X_X__  X___
!!!rhy2: X__  X__X__X_.X  XX_.X__X_.X  X__X__X__  X___
!!!key: I0544  16  E 3/4 ]  ZZ[4
!!!mod: SECHSTONSKALA MOLL ?]  AMBITUS[8
!!!kad: +11+11
!!!akz: 3b3b3b+1_7b521_3b3b3b+1_7b521_
!!!fot: 'a__b__av_b__
!!!for: 'a__b__c__b__
!!!fok: '/__Sd_/__Sd_
!! PHRAS[AUFTAKTIG]
!!!fkt: Klagelied
!! IRISCHE V
!! PR[14] 2K[11] 2G[23] 3K[3] 3G[0] 4A[1] 4Ü[1] 5A[1] 6K[0] 6G[0]
!! 7K[0] 7G[0] 8A[0] MEHR[0] SI[40] ABS[93] SR[33] SP[6]
!! ST[16] 2k[12] 2g[26] 3k[6] 3g[1] 4d[1] 4ü[0] 5d[0] 6k[0] 6g[0]
!! 7k[0] 7g[0] 8d[0] mehr[0] si[46] dm[-6] sr[38] sp[9]
!! 1F[10] 2F[52] 3F[29] 4F[1] LF[0] 2P[5] 3P[3] 4P[0] TRI[0] DF[6] AB[94]
!! TF[0] U3K[0] U3[0] U4[0] U4Ü[0] U5[0] U6K[0] U6[0] U7K[0] U7[0]
!! N1[17] N2K[0] N2[11] N3K[0] N3[14] N4[9] N4Ü[0] N5[15] N6K[0] N6[14]
!!!n7k: 13] N7[1] O1[7] O2K[0] O2[0] O3K[0] O3[0] HÖ[0
